icons/communication/call-arrow-right-24.svg

<svg width="24" height="24" viewBox="0 0 24 24" fill="none" xmlns="http://www.w3.org/2000/svg">
<path fill-rule="evenodd" clip-rule="evenodd" d="M9.49827 0C11.1562 0 12.5 1.32162 12.5 2.95217V4.78737C12.5 6.15024 11.3693 7.18693 9.92504 7.18693L8.62408 7.18616C8.59949 7.18622 8.57714 7.19356 8.56124 7.20384C8.54626 7.21352 8.54061 7.22293 8.53817 7.22912C7.98219 8.63843 7.65854 10.2608 7.65856 12C7.65859 13.7395 7.98143 15.3625 8.53666 16.7726C8.53915 16.7788 8.54491 16.7881 8.55963 16.7977C8.57563 16.808 8.59767 16.8154 8.62228 16.8154L10.0579 16.8146C11.406 16.8135 12.4984 17.8888 12.4985 19.2142L12.4984 21.0478C12.4984 22.6783 11.1546 23.9999 9.49666 24L8.46199 24C7.02001 24 5.69799 23.2724 4.88263 22.0975C3.10159 19.5293 2.00001 15.9559 2 12C2 8.04409 3.10146 4.47094 4.88245 1.90267C5.69781 0.727802 7.01997 0 8.46194 0H9.49827ZM9.49827 1.48358C10.3231 1.48358 10.9915 2.14098 10.9915 2.95217V4.78737C10.9915 5.25656 10.6138 5.70335 9.92504 5.70335L8.62453 5.70258C7.99177 5.70258 7.37734 6.06985 7.13174 6.69269C6.5068 8.27687 6.15007 10.0814 6.15004 12C6.15008 13.9184 6.50602 15.7237 7.13002 17.3087C7.37563 17.9317 7.99003 18.299 8.62292 18.299L10.0591 18.2982C10.5724 18.2978 10.99 18.7075 10.9899 19.2142L10.99 21.0478C10.9899 21.859 10.3215 22.5164 9.49673 22.5164H8.46192C7.54843 22.5164 6.68024 22.056 6.12871 21.2614C4.54166 18.9728 3.50847 15.7007 3.50844 12C3.50848 8.29943 4.54173 5.02718 6.12869 2.73859C6.68027 1.94395 7.54846 1.48358 8.46194 1.48358L9.49827 1.48358Z" fill="black"/>
<path d="M19.3573 12.7947L17.2224 15.1389C17.0797 15.2824 16.9965 15.4795 16.9908 15.6875C16.985 15.8955 17.0572 16.0975 17.1917 16.2495C17.3262 16.4015 17.5121 16.4913 17.7089 16.4994C17.9057 16.5075 18.0976 16.4331 18.2428 16.2925L21.7629 12.582C21.8377 12.5082 21.8974 12.4188 21.9382 12.3196C21.979 12.2204 22 12.1134 22 12.0052C22 11.897 21.979 11.79 21.9382 11.6907C21.8974 11.5915 21.8377 11.5022 21.7629 11.4283L18.2428 7.71781C18.1713 7.64587 18.087 7.58961 17.9948 7.55228C17.9026 7.51495 17.8043 7.4973 17.7056 7.50034C17.6068 7.50337 17.5097 7.52705 17.4197 7.56999C17.3297 7.61293 17.2486 7.67428 17.1812 7.7505C17.1138 7.82672 17.0614 7.9163 17.0269 8.01406C16.9924 8.11183 16.9767 8.21583 16.9805 8.32006C16.9843 8.4243 17.0077 8.5267 17.0492 8.62135C17.0907 8.716 17.1496 8.80102 17.2224 8.8715L19.3573 11.2157H13.7474C13.5492 11.2157 13.3591 11.2989 13.2189 11.4469C13.0787 11.595 13 11.7958 13 12.0052C13 12.2146 13.0787 12.4154 13.2189 12.5634C13.3591 12.7115 13.5492 12.7947 13.7474 12.7947H19.3573Z" fill="black"/>
</svg>

<svg xmlns="http://www.w3.org/2000/svg" width="24" height="24"><path fill-rule="evenodd" d="M9.498 0C11.156 0 12.5 1.322 12.5 2.952v1.835c0 1.363-1.13 2.4-2.575 2.4h-1.3a.118.118 0 00-.064.017.055.055 0 00-.023.025A13.036 13.036 0 007.658 12c0 1.74.323 3.363.879 4.773a.056.056 0 00.023.025c.016.01.038.017.062.017h1.436c1.348-.002 2.44 1.074 2.44 2.4v1.833c0 1.63-1.343 2.952-3.001 2.952H8.462c-1.442 0-2.764-.728-3.58-1.902C3.103 19.529 2 15.956 2 12 2 8.044 3.101 4.47 4.882 1.903 5.698.728 7.02 0 8.462 0h1.036zm0 1.484a1.48 1.48 0 011.494 1.468v1.835c0 .47-.378.916-1.067.916h-1.3c-.633 0-1.248.367-1.493.99C6.507 8.277 6.15 10.08 6.15 12c0 1.918.356 3.724.98 5.309.246.623.86.99 1.493.99h1.436a.921.921 0 01.93.915l.001 1.834a1.48 1.48 0 01-1.493 1.468H8.462c-.914 0-1.782-.46-2.333-1.255-1.587-2.288-2.62-5.56-2.62-9.261 0-3.7 1.033-6.973 2.62-9.261.551-.795 1.42-1.255 2.333-1.255h1.036z"/><path d="M19.357 12.795l-2.135 2.344a.81.81 0 00-.231.549.815.815 0 00.2.562.741.741 0 00.518.25.724.724 0 00.534-.207l3.52-3.711a.827.827 0 000-1.154l-3.52-3.71a.712.712 0 00-.823-.148.75.75 0 00-.239.18.799.799 0 00-.2.57.826.826 0 00.241.551l2.135 2.345h-5.61a.728.728 0 00-.528.23.813.813 0 00-.219.56c0 .209.079.41.219.557.14.148.33.232.528.232h5.61z"/></svg>
